!!!!SEGMENT: pl-sa--553-a-ix-33--003_anonim--overtura.krn
!!!cenid: 18xx:560
!!!COM: Anonim
!!!COM-rismid: pe30004985
!!!CDT:
!!!CNT:
!!!OTL: Overtura
!!!PDT:
!!!AGN: Secular
!!!SMS-siglum: PL-SA
!!!SMS-shelfmark: 553/A IX 33
!!!SMS-shelfwork: 003 W
!!!SMS-variant:
!!!SMS-altvar:
!!!NIFC-rismid: 1001112136
!!!URL-scan: http://bc.bdsandomierz.pl/dlibra/publication/1309/edition/1277/content
!!!ONB-nifc: Str. 11 (s. 2) – Str. 12
**kern	**kern	**dynam
*part1	*part1	*part1
*staff2	*staff1	*
*I"Piano	*	*
*I'pf	*	*
*clefF4	*clefG2	*
*k[b-]	*k[b-]	*
*F:	*F:	*
*M4/4	*M4/4	*
*met(c)	*met(c)	*
=1	=1	=1
*^	*	*
*2\right	*2\right	*2\right	*
4c 4A/	4F 4FF\	4f/	.
8cL 8A/	8FL 8FF\	8.f/L	.
8cJ 8A/	8FJ 8FF\	.	.
.	.	16f/Jk	.
4c 4A/	4F 4FF\	4f/	.
8r	4ryy	8r	.
8C\	.	8c/	.
*v	*v	*	*
=2	=2	=2
8F\L	8f/L|	.
8A\	8a/|	.
8c\	8cc/|	.
8A\J	8a/J|	.
4F\	4f/	.
4r	4r	.
=3	=3	=3
*tremolo	*	*
8F\L	8ffL 8dd\	.
8F\	16ggL 16ee\	.
.	16ffJJ 16dd\	.
8F\	8ee 8cc\	.
8F\J	8r	.
8F\L	8ddL 8b-\	.
8F\	16eeL 16cc\	.
.	16ddJJ 16b-\	.
8F\	8cc 8a\	.
8F\J	8r	.
=4	=4	=4
8F\L	8ddL 8b-\	.
8F\	16eeL 16cc\	.
.	16ddJJ 16b-\	.
8F\	8cc 8a\	.
8F\J	8r	.
8F\L	8b-L 8g\	.
8F\	16ccL 16a\	.
.	16b-JJ 16g\	.
8F\	8a 8f\	.
8F\J	8r	.
=5	=5	=5
8B-\L	2bb- 2dd\	.
8B-\	.	.
8B-\	.	.
8B-\J	.	.
8c\L	2ee 2b-\	.
8c\	.	.
8c\	.	.
8c\J	.	.
*Xtremolo	*	*
=6	=6	=6
4F\	4ff\	.
!	!LO:N:vis=8.	!
8FF/L	8.ffL 8.cc 8.a\	.
8FF/J	.	.
.	16ffJk 16cc 16a\	.
4FF/	4ff 4cc 4a\	.
4r	8r	.
.	8c/	.
=7	=7	=7
8F\L	8f/L|	.
8A\	8a/|	.
8c\	8cc/|	.
8A\J	8a/J|	.
4F\	4f/	.
4r	4r	.
!!LO:LB:g=original
=8	=8	=8
*tremolo	*	*
8F 8FF\L	16cc\LL	.
.	16bn\	.
8F 8FF\	16cc\	.
.	16dd\JJ	.
8F 8FF\	8cc\	.
8F 8FF\J	8r	.
8F 8FF\L	16f/LL	.
.	16e/	.
8F 8FF\	16f/	.
.	16g/JJ	.
8F 8FF\	8f/	.
8F 8FF\J	8r	.
=9	=9	=9
8F 8FF\L	8f/	.
8F 8FF\	8r	.
8F 8FF\	8aa 8ff\	.
8F 8FF\J	8r	.
8F 8FF\L	8aa 8ff\	.
8F 8FF\	8r	.
8F 8FF\	8cc 8a\	.
8F 8FF\J	8ryy	.
=10	=10	=10
8C/L	16b-/LL	.
.	16a/	.
8C/	16b-/	.
.	16cc/JJ	.
8C/	8b-/	.
8C/J	8r	.
8C/L	16g/LL	.
.	16f#X/	.
8C/	16g/	.
.	16b-/JJ	.
8C/	8g/	.
8C/J	8r	.
=11	=11	=11
8C/L	8e/	.
8C/	8r	.
8C/	8bb- 8gg\	.
8C/J	8r	.
8C/L	8gg 8ee\	.
8C/	8r	.
8C/	8b- 8g/	.
8C/J	8r	.
=12	=12	=12
8F\L	16a/LL	.
.	16g/	.
8F\	16a/	.
.	16b-/JJ	.
8F\	8a/	.
8F\J	8r	.
8F\L	16cc/LL	.
.	16bn/	.
8F\	16cc/	.
.	16dd/JJ	.
8F\	8cc/	.
8F\J	8r	.
*Xtremolo	*	*
=13	=13	=13
4F\	16ff\LL	.
.	16gg\	.
.	16aa\	.
.	16gg\JJ	.
8r	8ff\L	.
8c\	8cc\J	.
8B-\L	8b-/L	.
8A\	8a/	.
8G\	8g/	.
8F\J	8f/J	.
=14	=14	=14
4c\	4cc\	.
8.C/L	8.ccL 8.g 8.e\	.
16C/Jk	16ccJk 16g 16e\	.
4C/	4cc 4g 4e\	.
4r	4r	.
!!LO:LB:g=original
=15	=15	=15
*tremolo	*	*
.	4qqaa 4qqff/	.
8c 8C\L	2gg 2ee\	.
8c 8C\	.	.
8c 8C\	.	.
8c 8C\J	.	.
8c 8C\L	8ccc 8ee\	.
8c 8C\	8r	.
8c 8C\	8aa 8ff\	.
8c 8C\J	8r	.
=16	=16	=16
8C\L	8aa 8ff\	.
8C\	8r	.
8C\	8gg 8ee\	.
8C\J	8r	.
8C\L	8aa 8ff\	.
8C\	8r	.
8C\	8ff 8dd\	.
8C\J	8r	.
=17	=17	=17
8C\L	4ff 4dd\	.
8C\	.	.
8C\	4ee 4cc\	.
8C\J	.	.
8E\L	4gg\	.
8E\	.	.
8E\	4cc\	.
8E\J	.	.
=18	=18	=18
8F\L	4dd\	.
8F\	.	.
8F\	8ff\L	.
8F\J	8dd\J	.
8G\L	4cc\	.
8G\	.	.
8G\	4bn\	.
8G\J	.	.
=19	=19	=19
.	4qqaa 4qqff/	.
8C\L	2gg 2ee\	.
8C\	.	.
8C\	.	.
8C\J	.	.
8C\L	8cccL 8ee\	.
8C\	8bbn\	.
8C\	8ccc\	.
8C\J	8aaJ 8ff\	.
=20	=20	=20
8C\L	4aa 4ff\	.
8C\	.	.
8C\	4gg 4ee\	.
8C\J	.	.
8C\L	8ggL 8ee\	.
8C\	8gg#X 8ee\	.
8C\	8aa 8ff\	.
8C\J	8ffJ 8dd\	.
=21	=21	=21
8C\L	4ff 4dd\	.
8C\	.	.
8C\	4ee 4cc\	.
8C\J	.	.
.	16qqee/LL	.
.	16qqgg/JJ	.
8E\L	4ccc\	.
8E\	.	.
8E\	8gg\L	.
8E\J	8ee\J	.
=22	=22	=22
8F\L	4dd\	.
8F\	.	.
8F\	8aa\L	.
8F\J	8ff\J	.
8G\L	4ee\	.
8G\	.	.
8G\	4dd\	.
8G\J	.	.
=23	=23	=23
8E\L	16gg\LL	.
.	16ccc\	.
8E\	16bbn\	.
.	16ccc\JJ	.
8E\	8gg\	.
8E\J	8r	.
8F\L	16aa\LL	.
.	16gg#X\	.
8F\	16aa\	.
.	16gg#\JJ	.
8F\	8aaL 8ff\	.
8F\J	8ffJ 8dd\	.
!!LO:LB:g=original
=24	=24	=24
8G\L	16ee\LL	.
.	16ccc\	.
8G\	16ee\	.
.	16ccc\JJ	.
8G\	16ee\LL	.
.	16ccc\	.
8G\J	16ee\	.
.	16ccc\JJ	.
*	*tremolo	*
!	!LO:TX:a:t=P:problem:w źródle laski po prawej stronie; VHV, mimo kodowania *2\right, nie wyświetla ich poprawnie	!
8GG/L	16dd\L	.
.	16bbn\	.
8GG/	16dd\	.
.	16bbn\	.
8GG/	16dd\	.
.	16bbn\	.
8GG/J	16dd\	.
.	16bbn\J	.
*Xtremolo	*Xtremolo	*
=25	=25	=25
4c\	8cc\L	.
.	16ee\L	.
.	16cc\JJ	.
4G\	8g/L	.
.	8g/J	.
4A\	8a/L	.
.	16cc/L	.
.	16a/JJ	.
4E\	8e/L	.
.	8e/J	.
=26	=26	=26
!	!LO:TX:a:t=v	!
4.F\	4.f/	.
16E\LL	16e/LL	.
16F\JJ	16f/JJ	.
4G\	4g/	.
4G\	4g/	.
=27	=27	=27
4C/	4c/	.
4c\	4ee 4cc 4g\	.
4G\	4ee 4cc 4g\	.
4E\	4ee 4cc 4g\	.
=28	=28	=28
2C 2CC/	2ee 2cc 2g\	.
2r	2r	.
=29:|!|:;	=29:|!|:;	=29:|!|:
*tremolo	*	*
!	!	!LO:DY:a:t=p&colon;
8C 8CC/L	4cc\	p
8C 8CC/	.	.
8C 8CC/	8.c/L	.
8C 8CC/J	.	.
.	16c/Jk	.
8C/L	4c/	.
8C/	.	.
8C/	8c/L	.
8C/J	8eJ 8c/	.
=30	=30	=30
8C/L	8eL 8c/	.
8C/	8d 8Bn/	.
8C/	8d 8B/	.
8C/J	8dJ 8B/	.
8C/L	4d 4B/	.
8C/	.	.
8C/	4r	.
8C/J	.	.
=31	=31	=31
8C/L	4e 4B-X/	.
8C/	.	.
8C/	8eL 8B-/	.
8C/J	8eJ 8B-/	.
8C/L	4e 4B-/	.
8C/	.	.
8C/	4e 4B-/	.
8C/J	.	.
*Xtremolo	*	*
!!LO:PB:g=original
=32	=32	=32
*tremolo	*	*
8C/L	8eL 8B-/	.
8C/	8f 8A/	.
8C/	8f 8A/	.
8C/J	8fJ 8A/	.
8C/L	4f 4A/	.
8C/	.	.
8C/	4g 4e/	.
8C/J	.	.
=33	=33	=33
8C/L	4a-X 4f/	.
8C/	.	.
8C/	4a- 4f/	.
8C/J	.	.
8C/L	4b- 4g/	.
8C/	.	.
8C/	4a- 4f/	.
8C/J	.	.
=34	=34	=34
8C/L	8aL 8f/	.
8C/	8g 8e/	.
8C/	8g 8e/	.
8C/J	8gJ 8e/	.
8C/L	4g 4e/	.
8C/	.	.
8C/	4cc 4a-X\	.
8C/J	.	.
=35	=35	=35
8C/L	4.cc 4.a-X\	.
8C/	.	.
8C/	.	.
8C/J	16dd-XLL 16b-\	.
.	16ccJJ 16a-\	.
8C/L	4b- 4g\	.
8C/	.	.
8C/	4b- 4g\	.
8C/J	.	.
=36	=36	=36
8C/L	4a-X 4f/	.
8C/	.	.
8C/	8gL 8e/	.
8C/J	8a-J 8f/	.
8C/L	4b- 4g/	.
8C/	.	.
8C/	4a- 4f/	.
8C/J	.	.
=37	=37	=37
!	!LO:SIC:s=8a-	!
8C/L	8aL 8f/	.
8C/	8g 8e/	.
8C/	8g 8e/	.
8C/J	8gJ 8e/	.
*Xtremolo	*	*
8C/L	4g 4e/	.
8BB-/	.	.
8AA/	4r	.
8GG/J	.	.
=38	=38	=38
!	!	!LO:DY:a:t=f&colon;
4FF/	4f 4c 4A/	f
8.F\L	8.fL 8.c 8.A/	.
16F\Jk	16fJk 16c 16A/	.
4F\	4f 4c 4A/	.
4r	4r	.
=39	=39	=39
*tremolo	*	*
!	!	!LO:DY:a:t=p&colon;
8F 8FF\L	8ffL 8dd\	p
8F 8FF\	16ggL 16ee\	.
.	16ffJJ 16dd\	.
8F 8FF\	8ee 8cc\	.
8F 8FF\J	8r	.
8F\L	8ddL 8b-\	.
8F\	16eeL 16cc\	.
.	16ddJJ 16b-\	.
8F\	8cc 8a\	.
8F\J	8r	.
!!LO:LB:g=original
=40	=40	=40
8F\L	8ddL 8b-\	.
8F\	16eeL 16cc\	.
.	16ddJJ 16b-\	.
8F\	8cc 8a\	.
8F\J	8r	.
8F\L	8b-L 8g/	.
8F\	16ccL 16a/	.
.	16b-JJ 16g/	.
8F\	8a 8f/	.
8F\J	8r	.
=41	=41	=41
8B-\L	2bb- 2dd\	.
8B-\	.	.
8B-\	.	.
8B-\J	.	.
*Xtremolo	*	*
2c\	2ee 2b-\	.
=42	=42	=42
4F\	4ff\	.
8.FF/L	8.ffL 8.cc 8.a\	.
16FF/Jk	16ffJk 16cc 16a\	.
4FF/	4ff 4cc 4a\	.
4r	8r	.
.	8c/	.
=43	=43	=43
4F 4FF\	8f/L	.
.	8a/	.
4r	8f/	.
.	8c/J	.
4F 4FF\	8f/L	.
.	8a/	.
4r	8cc 8a/	.
.	8b-J 8g/	.
=44	=44	=44
4F 4FF\	8ccL 8a\	.
.	8ff 8a\	.
4r	8cc 8a\	.
.	8b-J 8g\	.
4F 4FF\	8aL 8f/	.
.	8b- 8g/	.
4r	8a 8f/	.
.	8gJ 8e/	.
=45	=45	=45
4F 4FF\	8a\L	.
.	8cc 8a\	.
4r	8dd 8b-\	.
.	8eeJ 8g\	.
4F 4FF\	8ffL 8a\	.
.	8cc 8a\	.
4r	8b- 8g\	.
.	8aJ 8f\	.
=46	=46	=46
4C/	4g 4e/	.
8.CC/L	8.gL 8.e/	.
16CC/Jk	16gJk 16e/	.
4CC/	4g 4e/	.
4r	4r	.
=47	=47	=47
2c 2E\	16bb-\LL	.
.	16aa\	.
.	16gg\	.
.	16ff\JJ	.
.	16ee\LL	.
.	16dd\	.
.	16cc\	.
.	16b-\JJ	.
4c 4F\	8a\L	.
.	8ff\	.
4r	8cc\	.
.	8ff\J	.
!!LO:LB:g=original
=48	=48	=48
8r	4cc 4a\	.
8F\L	.	.
8A\	4r	.
8F\J	.	.
4c 4E\	16bb-\LL	.
.	16aa\	.
.	16gg\	.
.	16ff\JJ	.
4r	16ee\LL	.
.	16dd\	.
.	16cc\	.
.	16b-\JJ	.
=49	=49	=49
4c 4F\	8a/L	.
.	8f/	.
4r	8a/	.
.	8bn/J	.
4c\	4cc\	.
8G\L	8.ee\L	.
8E\J	.	.
.	16gg\Jk	.
=50	=50	=50
4C\	4ccc\	.
8.cL 8.C\	8.cccL 8.ee\	.
16cJk 16C\	16cccJk 16ee\	.
4c 4C\	4ccc 4ee\	.
4r	4r	.
=51	=51	=51
*tremolo	*	*
!	!	!LO:DY:a:t=p&colon;
8F\L	2cc 2a\	p
8F\	.	.
8F\	.	.
8F\J	.	.
8F\L	4ff 4dd\	.
8F\	.	.
8F\	4dd 4b-\	.
8F\J	.	.
=52	=52	=52
8F\L	4dd 4b-\	.
8F\	.	.
8F\	4cc 4a\	.
8F\J	.	.
8F\L	4dd 4b-\	.
8F\	.	.
8F\	4b- 4g\	.
8F\J	.	.
=53	=53	=53
8F\L	4b- 4g/	.
8F\	.	.
8F\	4a 4f/	.
8F\J	.	.
8A 8AA\L	4cc/	.
8A 8AA\	.	.
8A 8AA\	4f/	.
8A 8AA\J	.	.
=54	=54	=54
8B- 8BB-\L	4g/	.
8B- 8BB-\	.	.
8B- 8BB-\	8b-/L	.
8B- 8BB-\J	8g/J	.
8c 8C\L	4f/	.
8c 8C\	.	.
8c 8C\	4e/	.
8c 8C\J	.	.
=55	=55	=55
.	8qqdd 8qqb-/	.
8F 8FF\L	2cc 2a\	.
8F 8FF\	.	.
8F 8FF\	.	.
8F 8FF\J	.	.
8F\L	8ffL 8dd\	.
8F\	8ee 8cc\	.
8F\	8ff 8dd\	.
8F\J	8ddJ 8b-\	.
=56	=56	=56
8F\L	4dd 4b-\	.
8F\	.	.
8F\	4cc 4a\	.
8F\J	.	.
8F\L	8ccL 8a\	.
8F\	8cc#X 8a\	.
8F\	8dd 8b-\	.
8F\J	8b-J 8g\	.
!!LO:LB:g=original
=57	=57	=57
8F\L	4b- 4g\	.
8F\	.	.
8F\	4a 4f\	.
8F\J	.	.
.	16qqa/LL	.
.	16qqcc/JJ	.
8A 8AA\L	4ff\	.
8A 8AA\	.	.
8A 8AA\	8cc\L	.
8A 8AA\J	8a\J	.
=58	=58	=58
8B- 8BB-\L	4g/	.
8B- 8BB-\	.	.
8B- 8BB-\	8b-/L	.
8B- 8BB-\J	8g/J	.
8c 8C\L	4a/	.
8c 8C\	.	.
8c 8C\	4g/	.
8c 8C\J	.	.
=59	=59	=59
8A 8AA\L	16cc\LL	.
.	16ff\	.
8A 8AA\	16ee\	.
.	16ff\JJ	.
8A 8AA\	8cc\	.
8A 8AA\J	8r	.
8B- 8BB-\L	16dd\LL	.
.	16cc#X\	.
8B- 8BB-\	16dd\	.
.	16cc#\JJ	.
8B- 8BB-\	8dd\L	.
8B- 8BB-\J	8b-\J	.
=60	=60	=60
8c\L	16a\LL	.
.	16ff\	.
8c\	16a\	.
.	16ff\JJ	.
8c\	16a\LL	.
.	16ff\	.
8c\J	16a\	.
.	16ff\JJ	.
*	*tremolo	*
!	!LO:TX:a:t=P:problem:w źródle laski w tej grupie po prawej stronie; VHV mimo kodowania *2\right nie wyświetla ich poprawnie	!
8C/L	16g\L	.
.	16ee\	.
8C/	16g\	.
.	16ee\	.
8C/	16g\	.
.	16ee\	.
8C/J	16g\	.
.	16ee\J	.
*Xtremolo	*Xtremolo	*
=61	=61	=61
4F\	8ff\L	.
.	16aa\L	.
.	16ff\JJ	.
8r	8cc\L	.
8C/	8cc\J	.
4D\	8dd\L	.
.	16ff\L	.
.	16dd\JJ	.
8r	8a\L	.
8AA/	8a\J	.
=62	=62	=62
4.BB-/	4.b-\	.
16AA/LL	16a\LL	.
16BB-/JJ	16b-\JJ	.
4C/	4cc\	.
4C/	4cc\	.
=63	=63	=63
4FF/	4f/	.
4F\	4ff 4cc 4a\	.
4C/	4ff 4cc 4a\	.
4AA/	4ff 4cc 4a\	.
=64	=64	=64
2FF/	2ff 2cc 2a\	.
2r	2r	.
!LO:TX:a:t=P:problem:w źródle kreska taktowa :||:	!LO:TX:a:t=P:problem:w źródle kreska taktowa :||:	!
==;	==;	==
*-	*-	*-
!!!system-decoration: s1,s2
!!!EED: Antoni Szymański
!!!EST: 2020-12-05
!!!ENC:Anastazja Marusiak
!!!END:2020-06-18
!!!RDF**kern: | = vertical stroke
